themes/default/assets/images/icons/mid/analytical.svg

<?xml version="1.0" encoding="UTF-8"?>
<svg width="100px" height="75px" viewBox="0 0 100 75" version="1.1" xmlns="http://www.w3.org/2000/svg" xmlns:xlink="http://www.w3.org/1999/xlink">
    <!-- Generator: sketchtool 59 (101010) - https://sketch.com -->
    <title>27DC6040-E7AE-46EE-B29E-34EBA5284D2E</title>
    <desc>Created with sketchtool.</desc>
    <g id="Page-1" stroke="none" stroke-width="1" fill="none" fill-rule="evenodd">
        <g id="Icons" transform="translate(-614.000000, -3360.000000)" fill-rule="nonzero">
            <g id="mid-icon-analytical" transform="translate(614.000000, 3360.000000)">
                <path d="M99.0196078,56.62 L99.0196078,56.62 L99.0196078,5.39 C99.1185881,3.92476312 98.6303527,2.48128463 97.6666667,1.39 C96.5934813,0.413667156 95.1797705,-0.0802126797 93.745098,0.02 L6.26470588,0.05 C2.80392157,0.06 0.980392157,1.93 0.980392157,5.46 L0.980392157,59.34 L0.980392157,59.34 L0.980392157,63.28 C0.886339639,64.7463445 1.37787652,66.189129 2.34313725,67.28 C3.41459439,68.2593434 4.82958925,68.7536718 6.26470588,68.65 L39.9607843,68.65 C39.7941176,72.76 38,73.41 36.5784314,73.65 L34.4215686,73.65 L34.4215686,75 L65.0980392,75 L65.0980392,73.58 L63.7254902,73.58 C62.2843137,73.39 60.5098039,72.75 60.3235294,68.63 L93.745098,68.63 C97.2058824,68.63 99.0294118,66.75 99.0294118,63.22 L99.0196078,56.62 Z M6.26470588,1.45 L93.6862745,1.39 L93.6862745,1.39 C94.7576337,1.31434151 95.8148687,1.67380141 96.627451,2.39 C97.3296065,3.21883397 97.6820181,4.29721367 97.6078431,5.39 L97.6078431,57.88 L2.3912315,58 L2.3912315,56.7 L2.3912315,56.7 L2.3912315,5.47 C2.35294118,2.69 3.55882353,1.45 6.26470588,1.45 Z M60.4705882,73.6 L39.8039216,73.69 C40.5980392,72.87 41.2254902,71.06 41.3235294,68.69 L58.9705882,68.69 C58.9393588,70.4486957 59.4654325,72.1707102 60.4705882,73.6 L60.4705882,73.6 Z M93.745098,67.22 L58.9803922,67.22 L41.3333333,67.22 L6.32352941,67.22 C5.25393114,67.2818594 4.20164368,66.9240817 3.38235294,66.22 C2.68019746,65.391166 2.3277858,64.3127863 2.40196078,63.22 L2.40196078,59.34 L97.6666667,59.27 L97.6666667,63.2 C97.6568627,65.94 96.4117647,67.21 93.745098,67.22 Z" id="Shape" fill="#A8C5DD"></path>
                <path d="M74.4117647,17 L74.4117647,30.32 L87.5,30.32 C87.4837821,22.958717 81.628727,17 74.4117647,17 Z M75.7843137,18.48 C81.1510328,19.1412967 85.3852928,23.4478666 86.0490196,28.92 L75.7843137,28.92 L75.7843137,18.48 Z" id="Shape" fill="#2969F6"></path>
                <path d="M72.5490196,20.0499994 C66.6191077,20.04824 61.4277831,24.110343 59.893301,29.9528353 C58.358819,35.7953276 60.8640277,41.9605268 66.0006471,44.9827232 C71.1372666,48.0049196 77.6237274,47.1300851 81.8137255,42.85 L72.5490196,33.41 L72.5490196,20.0499994 Z M79.8137255,42.79 C77.7491141,44.4643414 75.1866447,45.3708539 72.5490196,45.3600963 C66.5291051,45.083433 61.68734,40.2118921 61.333924,34.075934 C60.980508,27.9399758 65.2297182,22.5236632 71.1764706,21.53 L71.1764706,34 L71.5784314,34.41 L79.8137255,42.79 Z" id="Shape" fill="#2969F6"></path>
                <path d="M83.6666667,41.82 C86.1266772,39.3200941 87.5065611,35.9219801 87.5000233,32.38 L74.4117647,32.38 L83.6666667,41.82 Z M83.6666667,39.82 L77.7843137,33.82 L86.1078431,33.82 C85.8391932,36.0047359 84.9766133,38.0692224 83.6176471,39.78 L83.6666667,39.82 Z" id="Shape" fill="#2969F6"></path>
                <path d="M41.1764706,44.4 L39.6862745,44.4 L39.6862745,23.4 L33.9803922,23.4 L33.9803922,44.4 L32.0980392,44.4 L32.0980392,33.34 L26.3921569,33.34 L26.3921569,44.4 L24.5098039,44.4 L24.5098039,30 L18.8039216,30 L18.8039216,44.4 L16.9215686,44.4 L16.9215686,37.76 L11.2156863,37.76 L11.2156863,44.4 L9.7254902,44.4 C9.34647125,44.4 9.03921569,44.7134007 9.03921569,45.1 C9.03921569,45.4865993 9.34647125,45.8 9.7254902,45.8 L41.1764706,45.8 C41.5554895,45.8 41.8627451,45.4865993 41.8627451,45.1 C41.8627451,44.7134007 41.5554895,44.4 41.1764706,44.4 L41.1764706,44.4 Z M35.3529412,24.79 L38.2941176,24.79 L38.2941176,44.4 L35.3529412,44.4 L35.3529412,24.79 Z M27.7647059,34.79 L30.7058824,34.79 L30.7058824,44.4 L27.7647059,44.4 L27.7647059,34.79 Z M20.1764706,31.47 L23.1176471,31.47 L23.1176471,44.47 L20.1764706,44.47 L20.1764706,31.47 Z M12.5882353,39.21 L15.5294118,39.21 L15.5294118,44.4 L12.5882353,44.4 L12.5882353,39.21 Z" id="Shape" fill="#2969F6"></path>
                <path d="M38.0588235,13.44 L32.7058824,14.17 C32.3241561,14.2224671 32.0564049,14.5806393 32.1078431,14.97 C32.1592814,15.3593607 32.5104306,15.6324671 32.8921569,15.58 L35.8333333,15.18 L29.0686275,24.06 L21.5392157,20.76 L13.6176471,28.84 C13.3484749,29.1167978 13.3484749,29.5632022 13.6176471,29.84 C13.8911446,30.1092355 14.3245417,30.1092355 14.5980392,29.84 L21.8529412,22.44 L29.5,25.78 L37.0196078,15.92 L37.4313725,19.07 C37.4759861,19.4210919 37.7705721,19.6829368 38.1176471,19.68 L38.2058824,19.68 C38.3885458,19.6576089 38.5547462,19.5613462 38.6671865,19.4128145 C38.7796268,19.2642827 38.8288902,19.0759211 38.8039216,18.89 L38.0588235,13.44 Z" id="Path" fill="#032663"></path>
                <path d="M50.1764706,50.44 C49.7920371,50.44 49.4803922,50.1221222 49.4803922,49.73 L49.4803922,10.73 C49.4485856,10.4580793 49.5729311,10.1917411 49.799947,10.0455387 C50.0269629,9.89933639 50.3161744,9.89933639 50.5431903,10.0455387 C50.7702062,10.1917411 50.8945516,10.4580793 50.8627451,10.73 L50.8627451,49.73 C50.8653697,49.9173781 50.7942263,50.0980057 50.6652393,50.2314519 C50.5362523,50.3648982 50.3601933,50.44 50.1764706,50.44 L50.1764706,50.44 Z" id="Path" fill="#A8C5DD"></path>
            </g>
        </g>
    </g>
</svg>

<svg width="100" height="75" xmlns="http://www.w3.org/2000/svg"><g fill-rule="nonzero" fill="none"><path d="M99.02 56.62V5.39a5.487 5.487 0 00-1.353-4A5.278 5.278 0 0093.745.02L6.265.05C2.804.06.98 1.93.98 5.46v57.82a5.507 5.507 0 001.363 4 5.25 5.25 0 003.922 1.37H39.96c-.167 4.11-1.961 4.76-3.383 5h-2.156V75h30.676v-1.42h-1.373c-1.44-.19-3.215-.83-3.401-4.95h33.421c3.46 0 5.284-1.88 5.284-5.41l-.01-6.6zM6.265 1.45l87.421-.06a4.018 4.018 0 012.941 1 4.203 4.203 0 01.98 3v52.49L2.392 58V5.47C2.353 2.69 3.56 1.45 6.265 1.45zM60.47 73.6l-20.667.09c.794-.82 1.421-2.63 1.52-5H58.97a8.284 8.284 0 001.5 4.91zm33.274-6.38H6.323a4.143 4.143 0 01-2.94-1 4.203 4.203 0 01-.981-3v-3.88l95.265-.07v3.93c-.01 2.74-1.255 4.01-3.922 4.02z" fill="#A8C5DD"/><path d="M74.412 17v13.32H87.5C87.484 22.959 81.629 17 74.412 17zm1.372 1.48c5.367.661 9.601 4.968 10.265 10.44H75.784V18.48z" fill="#2969F6"/><path d="M72.549 20.05c-5.93-.002-11.121 4.06-12.656 9.903-1.534 5.842.971 12.008 6.108 15.03 5.136 3.022 11.623 2.147 15.813-2.133l-9.265-9.44V20.05zm7.265 22.74a11.455 11.455 0 01-7.265 2.57c-6.02-.277-10.862-5.148-11.215-11.284-.353-6.136 3.896-11.552 9.842-12.546V34l.402.41 8.236 8.38z" fill="#2969F6"/><path d="M83.667 41.82c2.46-2.5 3.84-5.898 3.833-9.44H74.412l9.255 9.44zm0-2l-5.883-6h8.324a11.922 11.922 0 01-2.49 5.96l.049.04zM41.176 44.4h-1.49v-21H33.98v21h-1.882V33.34h-5.706V44.4H24.51V30h-5.706v14.4h-1.882v-6.64h-5.706v6.64h-1.49a.693.693 0 00-.687.7c0 .387.307.7.686.7h31.451a.693.693 0 00.687-.7c0-.387-.308-.7-.687-.7zm-5.823-19.61h2.941V44.4h-2.941V24.79zm-7.588 10h2.94v9.61h-2.94v-9.61zm-7.589-3.32h2.942v13h-2.942v-13zm-7.588 7.74h2.941v5.19h-2.94v-5.19z" fill="#2969F6"/><path d="M38.059 13.44l-5.353.73a.709.709 0 00-.598.8.7.7 0 00.784.61l2.941-.4-6.764 8.88-7.53-3.3-7.921 8.08a.72.72 0 000 1c.273.27.707.27.98 0l7.255-7.4 7.647 3.34 7.52-9.86.411 3.15a.69.69 0 00.687.61h.088a.683.683 0 00.461-.267.71.71 0 00.137-.523l-.745-5.45z" fill="#032663"/><path d="M50.176 50.44a.703.703 0 01-.696-.71v-39a.715.715 0 01.32-.684.685.685 0 01.743 0 .715.715 0 01.32.684v39a.707.707 0 01-.198.501.68.68 0 01-.489.209z" fill="#A8C5DD"/></g></svg>
